X: 3387
M: 2/4
L: 1/16
K: A
|:\
e2e2c2c2 | e2ed c4 | d2d2B2B2 | d2dc B4 |\
|:\
efed cBcd | efed c2c2 | dedc B2B2 | dedc B2B2 |\


